assets/img/bg/github-icon.svg

<?xml version="1.0" encoding="UTF-8"?>
<svg xmlns="http://www.w3.org/2000/svg" xmlns:xlink="http://www.w3.org/1999/xlink" width="px" height="px" viewBox="0 0 12 12" version="1.1">
<g id="surface1">
<path style="fill:none;stroke-width:2;stroke-linecap:round;stroke-linejoin:round;stroke:rgb(0%,0%,0%);stroke-opacity:1;stroke-miterlimit:4;" d="M 9 19 C 4 20.5 4 16.5 2 16 M 16 22 L 16 18.132812 C 16.078125 17.164062 15.734375 16.210938 15.0625 15.523438 C 18.203125 15.171875 21.5 13.976562 21.5 8.523438 C 21.5 7.125 20.960938 5.78125 20 4.773438 C 20.453125 3.546875 20.421875 2.195312 19.90625 1 C 19.90625 1 18.726562 0.648438 16 2.476562 C 13.710938 1.859375 11.289062 1.859375 9 2.476562 C 6.273438 0.648438 5.09375 1 5.09375 1 C 4.578125 2.195312 4.546875 3.546875 5 4.773438 C 4.03125 5.789062 3.492188 7.140625 3.5 8.546875 C 3.5 13.96875 6.796875 15.15625 9.9375 15.546875 C 9.273438 16.234375 8.929688 17.171875 9 18.132812 L 9 22 " transform="matrix(0.5,0,0,0.5,0,0)"/>
</g>
</svg>

<svg xmlns="http://www.w3.org/2000/svg"   viewBox="0 0 24 24" fill="none" stroke="currentColor" stroke-width="2" stroke-linecap="round" stroke-linejoin="round" class="feather feather-github"><path d="M9 19c-5 1.5-5-2.5-7-3m14 6v-3.87a3.37 3.37 0 0 0-.94-2.61c3.14-.35 6.44-1.54 6.44-7A5.44 5.44 0 0 0 20 4.77 5.07 5.07 0 0 0 19.91 1S18.73.65 16 2.48a13.38 13.38 0 0 0-7 0C6.27.65 5.09 1 5.09 1A5.07 5.07 0 0 0 5 4.77a5.44 5.44 0 0 0-1.5 3.78c0 5.42 3.3 6.61 6.44 7A3.37 3.37 0 0 0 9 18.13V22"></path></svg>
